static/assets/images/networks/oasis.svg

<svg xmlns="http://www.w3.org/2000/svg" fill="none" viewBox="0 0 512 512"><path fill="#0092F6" d="M256 512c141.385 0 256-114.615 256-256S397.385 0 256 0 0 114.615 0 256s114.615 256 256 256"/><path fill="#fff" fill-rule="evenodd" d="M401.324 145.914c-27.613-35.287-68.08-57.67-112.897-57.67-86.652.048-150.04 80.542-150.04 167.78 0 60.799 40.369 106.299 85.235 106.299 4.203 0 8.357-.391 12.462-1.124-30.057-21.944-49.313-61.873-49.313-105.175 0-68.959 46.625-122.72 101.607-122.72 59.968 0 101.656 59.528 101.656 122.72-.146 46.625-16.763 93.006-46.038 127.217-25.561 29.861-58.599 48.824-95.009 54.836 0 0 3.03.244 6.989.244 100.678 0 182.296-81.618 182.296-182.297 0-41.346-13.782-79.467-36.997-110.062zm-27.662 110.062c0-60.798-40.369-106.299-85.235-106.299-4.203 0-8.357.391-12.462 1.124 30.057 21.944 49.313 61.873 49.313 105.175 0 68.959-46.625 122.72-101.607 122.72-59.968 0-101.656-59.528-101.656-122.72.146-46.625 16.763-93.006 46.038-127.217 25.512-29.861 58.599-48.775 94.96-54.787 0 0-3.03-.244-6.989-.244-100.678 0-182.296 81.618-182.296 182.296 0 41.347 13.782 79.468 36.997 110.063 27.613 35.286 68.08 57.67 112.897 57.67 86.652 0 149.991-80.494 149.991-167.733z" clip-rule="evenodd"/></svg>

<svg width="512" height="512" viewBox="0 0 512 512" fill="none" xmlns="http://www.w3.org/2000/svg">
<path d="M256 512C397.385 512 512 397.385 512 256C512 114.615 397.385 0 256 0C114.615 0 0 114.615 0 256C0 397.385 114.615 512 256 512Z" fill="#0092F6"/>
<path fill-rule="evenodd" clip-rule="evenodd" d="M401.324 145.914C373.711 110.627 333.244 88.2433 288.427 88.2433C201.775 88.2922 138.387 168.786 138.387 256.024C138.387 316.823 178.756 362.323 223.622 362.323C227.825 362.323 231.979 361.932 236.084 361.199C206.027 339.255 186.771 299.326 186.771 256.024C186.771 187.065 233.396 133.304 288.378 133.304C348.346 133.304 390.034 192.832 390.034 256.024C389.888 302.649 373.271 349.03 343.996 383.241C318.435 413.102 285.397 432.065 248.987 438.077C248.987 438.077 252.017 438.321 255.976 438.321C356.654 438.321 438.272 356.703 438.272 256.024C438.272 214.678 424.49 176.557 401.275 145.962L401.324 145.914ZM373.662 255.976C373.662 195.178 333.293 149.677 288.427 149.677C284.224 149.677 280.07 150.068 275.965 150.801C306.022 172.745 325.278 212.674 325.278 255.976C325.278 324.935 278.653 378.696 223.671 378.696C163.703 378.696 122.015 319.168 122.015 255.976C122.161 209.351 138.778 162.97 168.053 128.759C193.565 98.8976 226.652 79.9838 263.013 73.9724C263.013 73.9724 259.983 73.728 256.024 73.728C155.346 73.728 73.728 155.346 73.728 256.024C73.728 297.371 87.5102 335.492 110.725 366.087C138.338 401.373 178.805 423.757 223.622 423.757C310.274 423.757 373.613 343.263 373.613 256.024L373.662 255.976Z" fill="white"/>
</svg>
